X: 3
T: The Seagull
R: jig
M: 6/8
L: 1/8
K: Gmaj
|:gfg egd|edB ABd|gfg egd|edB GBd|
gfg egd|edB ABd|ged egd|edB GBd:|
|:eBB BAA|edB ABd|eBB BAA|edB GBd|
eBB BAA|edB ABd|ged egd|edB GBd:|
|:Bed ABd|edB ABd|Bed ABd|edB GBd|
Bed ABd|edB ABd|ged egd|edB GBd:|
|:gdB ABd|edB ABd|gdB ABd|edB GBd|
gdB ABd|edB ABd|ged egd|edB GBd:|


Tune 4361	Setting 4361

